X:7950
T:Yodel tune
C:anon.
O:Switzerland
F:http://abc.musicaviva.com/tunes/switzerland/anon-yodel-tune.abc
M:3/4
L:1/8
K:G
HD>C|B,D GB ed|cc A2 F>E|DF Ac ee|
dd B2 D>C|B,D GB AG|E4 F>E|DF Ac BA|G4|]
W:
W:
W:  From Musica Viva - http://www.musicaviva.com
W:  the Internet center for free sheet music downloads.

